public/www/assets/sponsors/native-php.svg

<svg width="191" height="56" viewBox="0 0 191 56" fill="none" xmlns="http://www.w3.org/2000/svg">
<g clip-path="url(#clip0_417_32)">
<path d="M7.375 25.1H0V0.800003H7.375V25.1Z" fill="white"/>
<path d="M24.1748 25.1H16.7998V0.800003H24.1748V25.1Z" fill="white"/>
<path d="M24.175 25.1H7.375V0.800003L24.175 25.1Z" fill="#B0B0B0"/>
<path d="M25.6504 14.125C25.6504 12.575 25.9754 11.175 26.6754 9.95C27.3504 8.7 28.3504 7.75 29.6504 7.05C30.9504 6.35 32.5004 6 34.3004 6C34.5754 6 35.0004 6.025 35.6004 6.075C36.8254 6.175 37.8754 6.4 38.7254 6.775C39.5754 7.15 40.3254 7.625 41.0004 8.25V6.45H47.4504V25.125H41.0004V23.325C40.3754 23.975 39.6004 24.475 38.6504 24.85C37.7004 25.225 36.6754 25.45 35.6254 25.5C35.4004 25.525 35.0504 25.525 34.6004 25.525C32.8004 25.525 31.2504 25.175 29.9004 24.5C28.5504 23.825 27.5254 22.85 26.8004 21.625C26.0754 20.4 25.7254 19 25.7254 17.475V14.125H25.6504ZM32.1004 16.475C32.1004 18.775 33.5754 19.925 36.5254 19.925C39.4754 19.925 40.9504 18.775 40.9504 16.475V15.075C40.9504 12.75 39.4754 11.575 36.5254 11.575C33.5754 11.575 32.1004 12.75 32.1004 15.075V16.475ZM52.0754 25.1V12.25H48.8754V6.425L52.0754 6.375V0.8H58.5504L58.5754 6.4H63.1504V12.25H58.5504V25.1M71.8254 25.1H65.3504V6.4H71.8254V25.1ZM87.7504 25.1H81.2504L73.5004 6.4H80.0004L84.5004 17.5L89.0004 6.375H95.4754L87.7504 25.1ZM113.725 22.4C112.7 23.45 111.525 24.225 110.2 24.725C108.875 25.225 107.25 25.45 105.325 25.45C103.325 25.45 101.55 25.1 100 24.4C98.4504 23.7 97.2254 22.725 96.3254 21.5C95.4504 20.25 95.0004 18.85 95.0004 17.25V14.15C95.0004 12.525 95.4254 11.1 96.3004 9.875C97.1504 8.65 98.3504 7.7 99.8504 7.05C101.35 6.375 103.025 6.05 104.85 6.05C106.85 6.05 108.6 6.425 110.15 7.125C111.675 7.85 112.875 8.875 113.75 10.225C114.6 11.575 115.05 13.125 115.05 14.9C115.05 15.325 115 15.95 114.875 16.825L101.325 16.85V17.375C101.325 18.4 101.7 19.2 102.425 19.725C103.15 20.275 104.15 20.525 105.375 20.525C106.525 20.525 107.5 20.375 108.325 20.075C109.125 19.775 109.925 19.2 110.675 18.375L113.725 22.4ZM108.6 13.35C108.6 12.575 108.25 11.975 107.55 11.575C106.85 11.175 105.95 10.975 104.85 10.975C103.75 10.975 102.875 11.175 102.225 11.575C101.575 11.975 101.275 12.575 101.275 13.35H108.6ZM116.5 25.1V0.8H130.5C132.975 0.8 134.95 1.275 136.425 2.2C137.9 3.125 138.925 4.25 139.475 5.525C140.05 6.8 140.325 8.05 140.325 9.275C140.325 10.475 140.025 11.7 139.45 12.95C138.875 14.2 137.85 15.25 136.4 16.15C134.95 17.05 132.975 17.5 130.475 17.5H122.925V25.125H116.5V25.1ZM130.5 11.65C132.75 11.65 133.9 10.825 133.9 9.175C133.9 7.45 132.75 6.6 130.475 6.6H122.95V11.65H130.5ZM148.25 25.1H141.8V0.8H148.25V10.3H159.225V0.8H165.675V25.1H159.225V15.475H148.25V25.1ZM167.15 25.1V0.8H181.15C183.625 0.8 185.6 1.275 187.075 2.2C188.55 3.125 189.575 4.25 190.125 5.525C190.7 6.8 190.975 8.05 190.975 9.275C190.975 10.475 190.675 11.7 190.1 12.95C189.525 14.2 188.5 15.25 187.05 16.15C185.6 17.05 183.625 17.5 181.125 17.5H173.575V25.125H167.15V25.1ZM181.15 11.65C183.4 11.65 184.55 10.825 184.55 9.175C184.55 7.45 183.4 6.6 181.125 6.6H173.6V11.65H181.15ZM72.7754 5.55H64.4004V0.5H72.7754V5.55Z" fill="white"/>
</g>
<g clip-path="url(#clip1_417_32)">
<rect x="99.4229" y="35.5" width="20" height="20" rx="10" fill="white"/>
<path d="M107.923 50.1875C107.923 50.0383 107.982 49.8952 108.088 49.7898C108.193 49.6843 108.336 49.625 108.485 49.625H110.36C110.51 49.625 110.653 49.6843 110.758 49.7898C110.864 49.8952 110.923 50.0383 110.923 50.1875C110.923 50.3367 110.864 50.4798 110.758 50.5852C110.653 50.6907 110.51 50.75 110.36 50.75H108.485C108.336 50.75 108.193 50.6907 108.088 50.5852C107.982 50.4798 107.923 50.3367 107.923 50.1875Z" fill="#17181C"/>
<path fill-rule="evenodd" clip-rule="evenodd" d="M104.923 41C104.923 40.4033 105.16 39.831 105.582 39.409C106.004 38.9871 106.576 38.75 107.173 38.75H111.673C112.27 38.75 112.842 38.9871 113.264 39.409C113.686 39.831 113.923 40.4033 113.923 41V50C113.923 50.5967 113.686 51.169 113.264 51.591C112.842 52.0129 112.27 52.25 111.673 52.25H107.173C106.576 52.25 106.004 52.0129 105.582 51.591C105.16 51.169 104.923 50.5967 104.923 50V41ZM107.923 39.875V40.4375C107.923 40.748 108.175 41 108.485 41H110.36C110.51 41 110.653 40.9407 110.758 40.8352C110.864 40.7298 110.923 40.5867 110.923 40.4375V39.875H111.673C111.971 39.875 112.257 39.9935 112.468 40.2045C112.679 40.4155 112.798 40.7016 112.798 41V50C112.798 50.2984 112.679 50.5845 112.468 50.7955C112.257 51.0065 111.971 51.125 111.673 51.125H107.173C106.874 51.125 106.588 51.0065 106.377 50.7955C106.166 50.5845 106.048 50.2984 106.048 50V41C106.048 40.7016 106.166 40.4155 106.377 40.2045C106.588 39.9935 106.874 39.875 107.173 39.875H107.923Z" fill="#17181C"/>
<path d="M130.149 41.097V42.399H126.019V45.269H129.239V46.571H126.019V50.827H124.423V41.097H130.149Z" fill="white"/>
<path d="M134.554 50.953C133.826 50.953 133.168 50.7897 132.58 50.463C131.992 50.127 131.53 49.6603 131.194 49.063C130.858 48.4563 130.69 47.7563 130.69 46.963C130.69 46.179 130.863 45.4837 131.208 44.877C131.553 44.2703 132.025 43.8037 132.622 43.477C133.219 43.1503 133.887 42.987 134.624 42.987C135.361 42.987 136.029 43.1503 136.626 43.477C137.223 43.8037 137.695 44.2703 138.04 44.877C138.385 45.4837 138.558 46.179 138.558 46.963C138.558 47.747 138.381 48.4423 138.026 49.049C137.671 49.6557 137.186 50.127 136.57 50.463C135.963 50.7897 135.291 50.953 134.554 50.953ZM134.554 49.567C134.965 49.567 135.347 49.469 135.702 49.273C136.066 49.077 136.36 48.783 136.584 48.391C136.808 47.999 136.92 47.523 136.92 46.963C136.92 46.403 136.813 45.9317 136.598 45.549C136.383 45.157 136.099 44.863 135.744 44.667C135.389 44.471 135.007 44.373 134.596 44.373C134.185 44.373 133.803 44.471 133.448 44.667C133.103 44.863 132.827 45.157 132.622 45.549C132.417 45.9317 132.314 46.403 132.314 46.963C132.314 47.7937 132.524 48.4377 132.944 48.895C133.373 49.343 133.91 49.567 134.554 49.567Z" fill="white"/>
<path d="M141.312 44.233C141.545 43.841 141.853 43.5377 142.236 43.323C142.628 43.099 143.09 42.987 143.622 42.987V44.639H143.216C142.59 44.639 142.114 44.7977 141.788 45.115C141.47 45.4323 141.312 45.983 141.312 46.767V50.827H139.716V43.113H141.312V44.233Z" fill="white"/>
<path d="M158.133 41.097V50.827H156.537V44.163L153.569 50.827H152.463L149.481 44.163V50.827H147.885V41.097H149.607L153.023 48.727L156.425 41.097H158.133Z" fill="white"/>
<path d="M163.157 50.953C162.429 50.953 161.771 50.7897 161.183 50.463C160.595 50.127 160.133 49.6603 159.797 49.063C159.461 48.4563 159.293 47.7563 159.293 46.963C159.293 46.179 159.466 45.4837 159.811 44.877C160.156 44.2703 160.628 43.8037 161.225 43.477C161.822 43.1503 162.49 42.987 163.227 42.987C163.964 42.987 164.632 43.1503 165.229 43.477C165.826 43.8037 166.298 44.2703 166.643 44.877C166.988 45.4837 167.161 46.179 167.161 46.963C167.161 47.747 166.984 48.4423 166.629 49.049C166.274 49.6557 165.789 50.127 165.173 50.463C164.566 50.7897 163.894 50.953 163.157 50.953ZM163.157 49.567C163.568 49.567 163.95 49.469 164.305 49.273C164.669 49.077 164.963 48.783 165.187 48.391C165.411 47.999 165.523 47.523 165.523 46.963C165.523 46.403 165.416 45.9317 165.201 45.549C164.986 45.157 164.702 44.863 164.347 44.667C163.992 44.471 163.61 44.373 163.199 44.373C162.788 44.373 162.406 44.471 162.051 44.667C161.706 44.863 161.43 45.157 161.225 45.549C161.02 45.9317 160.917 46.403 160.917 46.963C160.917 47.7937 161.127 48.4377 161.547 48.895C161.976 49.343 162.513 49.567 163.157 49.567Z" fill="white"/>
<path d="M169.915 44.261C170.186 43.8877 170.554 43.5843 171.021 43.351C171.497 43.1083 172.024 42.987 172.603 42.987C173.284 42.987 173.9 43.1503 174.451 43.477C175.002 43.8037 175.436 44.2703 175.753 44.877C176.07 45.4743 176.229 46.1603 176.229 46.935C176.229 47.7097 176.07 48.405 175.753 49.021C175.436 49.6277 174.997 50.1037 174.437 50.449C173.886 50.785 173.275 50.953 172.603 50.953C172.006 50.953 171.474 50.8363 171.007 50.603C170.55 50.3697 170.186 50.071 169.915 49.707V50.827H168.319V40.467H169.915V44.261ZM174.605 46.935C174.605 46.403 174.493 45.9457 174.269 45.563C174.054 45.171 173.765 44.877 173.401 44.681C173.046 44.4757 172.664 44.373 172.253 44.373C171.852 44.373 171.469 44.4757 171.105 44.681C170.75 44.8863 170.461 45.185 170.237 45.577C170.022 45.969 169.915 46.431 169.915 46.963C169.915 47.495 170.022 47.9617 170.237 48.363C170.461 48.755 170.75 49.0537 171.105 49.259C171.469 49.4643 171.852 49.567 172.253 49.567C172.664 49.567 173.046 49.4643 173.401 49.259C173.765 49.0443 174.054 48.7363 174.269 48.335C174.493 47.9337 174.605 47.467 174.605 46.935Z" fill="white"/>
<path d="M178.199 42.091C177.91 42.091 177.667 41.993 177.471 41.797C177.275 41.601 177.177 41.3583 177.177 41.069C177.177 40.7797 177.275 40.537 177.471 40.341C177.667 40.145 177.91 40.047 178.199 40.047C178.479 40.047 178.717 40.145 178.913 40.341C179.109 40.537 179.207 40.7797 179.207 41.069C179.207 41.3583 179.109 41.601 178.913 41.797C178.717 41.993 178.479 42.091 178.199 42.091ZM178.983 43.113V50.827H177.387V43.113H178.983Z" fill="white"/>
<path d="M182.255 40.467V50.827H180.659V40.467H182.255Z" fill="white"/>
<path d="M191 46.781C191 47.0703 190.981 47.3317 190.944 47.565H185.05C185.097 48.181 185.325 48.6757 185.736 49.049C186.147 49.4223 186.651 49.609 187.248 49.609C188.107 49.609 188.713 49.2497 189.068 48.531H190.79C190.557 49.2403 190.132 49.8237 189.516 50.281C188.909 50.729 188.153 50.953 187.248 50.953C186.511 50.953 185.848 50.7897 185.26 50.463C184.681 50.127 184.224 49.6603 183.888 49.063C183.561 48.4563 183.398 47.7563 183.398 46.963C183.398 46.1697 183.557 45.4743 183.874 44.877C184.201 44.2703 184.653 43.8037 185.232 43.477C185.82 43.1503 186.492 42.987 187.248 42.987C187.976 42.987 188.625 43.1457 189.194 43.463C189.763 43.7803 190.207 44.2283 190.524 44.807C190.841 45.3763 191 46.0343 191 46.781ZM189.334 46.277C189.325 45.689 189.115 45.2177 188.704 44.863C188.293 44.5083 187.785 44.331 187.178 44.331C186.627 44.331 186.156 44.5083 185.764 44.863C185.372 45.2083 185.139 45.6797 185.064 46.277H189.334Z" fill="white"/>
</g>
<defs>
<clipPath id="clip0_417_32">
<rect width="191" height="25" fill="white" transform="translate(0 0.5)"/>
</clipPath>
<clipPath id="clip1_417_32">
<rect x="99.4229" y="35.5" width="91.5771" height="20" rx="10" fill="white"/>
</clipPath>
</defs>
</svg>

<svg xmlns="http://www.w3.org/2000/svg" fill="none" viewBox="0 0 191 26"><path fill="#fff" d="M7.375 25.1H0V.80005h7.375V25.1Z"/><path fill="#fff" d="M24.1748 25.1h-7.375V.80005h7.375V25.1Z"/><path fill="#B0B0B0" d="M24.1748 25.1H7.375V.80005L24.1748 25.1Z"/><path fill="#fff" d="M25.6504 14.125c0-1.55.325-2.95 1.025-4.175.675-1.25 1.675-2.2 2.975-2.9 1.3-.7 2.85-1.05 4.65-1.05.275 0 .7.025 1.3.075 1.225.1 2.275.325 3.125.7.85.375 1.6.85 2.275 1.475v-1.8h6.45v18.675h-6.45v-1.8c-.625.65-1.4 1.15-2.35 1.525-.95.375-1.975.6-3.025.65-.225.025-.575.025-1.025.025-1.8 0-3.35-.35-4.7-1.025-1.35-.675-2.375-1.65-3.1-2.875-.725-1.225-1.075-2.625-1.075-4.15v-3.35h-.075Zm6.45 2.35c0 2.3 1.475 3.45 4.425 3.45 2.95 0 4.425-1.15 4.425-3.45v-1.4c0-2.325-1.475-3.5-4.425-3.5-2.95 0-4.425 1.175-4.425 3.5v1.4Zm19.975 8.625V12.25h-3.2V6.425l3.2-.05V.8h6.475l.025 5.6h4.575v5.85h-4.6V25.1m13.275 0h-6.475V6.4h6.475v18.7Zm15.925 0h-6.5l-7.75-18.7h6.5l4.5 11.1 4.5-11.125h6.475L87.7504 25.1Zm25.9746-2.7c-1.025 1.05-2.2 1.825-3.525 2.325-1.325.5-2.95.725-4.875.725-2 0-3.775-.35-5.325-1.05-1.5496-.7-2.7746-1.675-3.6746-2.9-.875-1.25-1.325-2.65-1.325-4.25v-3.1c0-1.625.425-3.05 1.3-4.275.85-1.225 2.05-2.175 3.55-2.825 1.4996-.675 3.1746-1 4.9996-1 2 0 3.75.375 5.3 1.075 1.525.725 2.725 1.75 3.6 3.1.85 1.35 1.3 2.9 1.3 4.675 0 .425-.05 1.05-.175 1.925l-13.55.025v.525c0 1.025.375 1.825 1.1 2.35.725.55 1.725.8 2.95.8 1.15 0 2.125-.15 2.95-.45.8-.3 1.6-.875 2.35-1.7l3.05 4.025Zm-5.125-9.05c0-.775-.35-1.375-1.05-1.775-.7-.4-1.6-.6-2.7-.6s-1.975.2-2.625.6c-.65.4-.95 1-.95 1.775h7.325ZM116.5.8h14c2.475 0 4.45.475 5.925 1.4 1.475.925 2.5 2.05 3.05 3.325.575 1.275.85 2.525.85 3.75 0 1.2-.3 2.425-.875 3.675s-1.6 2.3-3.05 3.2c-1.45.9-3.425 1.35-5.925 1.35h-7.55v7.625H116.5V.8Zm14 10.85c2.25 0 3.4-.825 3.4-2.475 0-1.725-1.15-2.575-3.425-2.575h-7.525v5.05h7.55Zm17.75 13.45h-6.45V.8h6.45v9.5h10.975V.8h6.45v24.3h-6.45v-9.625H148.25V25.1ZM167.15.8h14c2.475 0 4.45.475 5.925 1.4 1.475.925 2.5 2.05 3.05 3.325.575 1.275.85 2.525.85 3.75 0 1.2-.3 2.425-.875 3.675s-1.6 2.3-3.05 3.2c-1.45.9-3.425 1.35-5.925 1.35h-7.55v7.625h-6.425V.8Zm14 10.85c2.25 0 3.4-.825 3.4-2.475 0-1.725-1.15-2.575-3.425-2.575H173.6v5.05h7.55ZM72.7754 5.55h-8.375V.5h8.375v5.05Z"/></svg>
